X:1
T:Asbury, 86.866
T:Asbury, 86.866
T:Harmonia Sacra, 5th edition, 1851 
T:Public Domain Courtesy of the Cyber Hymnal™
C:Harmonia Sacra, 5th edition, 1851
Z:Public Domain
Z:Courtesy of the Cyber Hymnal™
%%score ( 1 2 ) ( 3 4 )
L:1/8
Q:1/4=115
M:4/4
K:C
V:1 treble 
V:2 treble 
V:3 bass 
V:4 bass 
V:1
 [EA]4 [Gc]2 [GB]2 | ([Ec]3 [GB] A2) [Ee]2 | ([Af]3 [ce] [Bd]2) [Ad]2 x2 | [^Ge]8 | %4
 [Ec]4 [GB]2 [FA]2 | d3 (z c) [EB]4 | [EA]8 | [Ge]4 [Gf]2 [Ae]2 | ([Bd]3 [Ae] [Gd]2) [Ge]2 | %9
 (A3 B c2) (dc) | [GB]8 | [ce]4 [Af]2 ([Ae][Gd]) | [Ac]4 [Bd]4 | [ce]8 | [Gd]4 [Ae]2 ([Ee][Fd]) | %15
 [Ec]4 [EB]4 | [EA]8 |] %17
V:2
 x8 | x4 A2 x2 | x10 | x8 | x8 | D2 F2 x5 | x8 | x8 | x8 | E6 A2 | x8 | x8 | x8 | x8 | x8 | x8 | %16
 x8 |] %17
V:3
 [A,C]4 [A,E]2 [E,E]2 | ([A,,E]3 [B,,D] [C,C]2) [C,A,]2 | A,6 F,2 [F,A,]2 | [E,^G,]8 | %4
 A,4 [E,^G,]2 [C,A,]2 | [D,A,]4 [E,^G,]4 x | [A,,A,]8 | [C,C]4 [B,,D]2 [C,C]2 | %8
 (B,3 C B,2) [E,B,]2 | (C3 B, A,2) [D,A,]2 | [E,G,]8 | C4 C2 (CB,) | A,4 ^G,4 | A,8 | %14
 [D,B,]4 [C,C]2 (CB,) | [E,A,]4 [E,^G,]4 | [A,,A,]8 |] %17
V:4
 x8 | x8 | D,3 E, x6 | x8 | A,4 x4 | x9 | x8 | x8 | G,6 x2 | A,6 x2 | x8 | x8 | x8 | x8 | x6 D,2 | %15
 x8 | x8 |] %17

